assets/components_previews/data-display/dark/data_editor.svg

<svg xmlns="http://www.w3.org/2000/svg" width="320" height="232" fill="none" viewBox="0 0 320 232"><g filter="url(#a)"><g clip-path="url(#b)"><rect width="216" height="108" x="52" y="62" fill="#0E0F10" rx="12"/><mask id="c" fill="#fff"><path d="M52 62h72v36H52z"/></mask><path fill="#261958" d="M124 98v1h1v-1zm-1-36v36h2V62zm1 35H52v2h72z" mask="url(#c)"/><rect width="40" height="10" x="68" y="75" fill="#4329AC" rx="5"/><mask id="d" fill="#fff"><path d="M124 62h72v36h-72z"/></mask><path fill="#261958" d="M196 98v1h1v-1zm-1-36v36h2V62zm1 35h-72v2h72z" mask="url(#d)"/><rect width="40" height="10" x="140" y="75" fill="#4329AC" rx="5"/><mask id="e" fill="#fff"><path d="M196 62h72v36h-72z"/></mask><path fill="#261958" d="M268 97h-72v2h72z" mask="url(#e)"/><rect width="40" height="10" x="212" y="75" fill="#4329AC" rx="5"/><mask id="f" fill="#fff"><path d="M52 98h72v36H52z"/></mask><path fill="#261958" d="M124 134v1h1v-1zm-1-36v36h2V98zm1 35H52v2h72z" mask="url(#f)"/><rect width="13" height="13" x="81.5" y="109.5" stroke="#4329AC" rx="4.5"/><mask id="g" fill="#fff"><path d="M124 98h72v36h-72z"/></mask><path fill="#261958" d="M196 134v1h1v-1zm-1-36v36h2V98zm1 35h-72v2h72z" mask="url(#g)"/><rect width="40" height="10" x="140" y="111" fill="#2F1C78" rx="5"/><mask id="h" fill="#fff"><path d="M196 98h72v36h-72z"/></mask><path fill="#261958" d="M268 133h-72v2h72z" mask="url(#h)"/><rect width="40" height="10" x="212" y="111" fill="#2F1C78" rx="5"/><mask id="i" fill="#fff"><path d="M52 134h72v36H52z"/></mask><path fill="#261958" d="M123 134v36h2v-36z" mask="url(#i)"/><rect width="13" height="13" x="81.5" y="145.5" stroke="#4329AC" rx="4.5"/><mask id="j" fill="#fff"><path d="M124 134h72v36h-72z"/></mask><path fill="#261958" d="M195 134v36h2v-36z" mask="url(#j)"/><rect width="40" height="10" x="140" y="147" fill="#2F1C78" rx="5"/><rect width="40" height="10" x="212" y="147" fill="#2F1C78" rx="5"/></g></g><defs><clipPath id="b"><rect width="216" height="108" x="52" y="62" fill="#fff" rx="12"/></clipPath><filter id="a" width="256" height="148" x="32" y="54" color-interpolation-filters="sRGB" filterUnits="userSpaceOnUse"><feFlood flood-opacity="0" result="BackgroundImageFix"/><feColorMatrix in="SourceAlpha" result="hardAlpha" values="0 0 0 0 0 0 0 0 0 0 0 0 0 0 0 0 0 0 127 0"/><feOffset dy="12"/><feGaussianBlur stdDeviation="10"/><feComposite in2="hardAlpha" operator="out"/><feColorMatrix values="0 0 0 0 0 0 0 0 0 0 0 0 0 0 0 0 0 0 0.03 0"/><feBlend in2="BackgroundImageFix" result="effect1_dropShadow_10060_19297"/><feColorMatrix in="SourceAlpha" result="hardAlpha" values="0 0 0 0 0 0 0 0 0 0 0 0 0 0 0 0 0 0 127 0"/><feOffset dy="2"/><feGaussianBlur stdDeviation="3"/><feComposite in2="hardAlpha" operator="out"/><feColorMatrix values="0 0 0 0 0 0 0 0 0 0 0 0 0 0 0 0 0 0 0.05 0"/><feBlend in2="effect1_dropShadow_10060_19297" result="effect2_dropShadow_10060_19297"/><feBlend in="SourceGraphic" in2="effect2_dropShadow_10060_19297" result="shape"/></filter></defs></svg>

<svg width="320" height="232" viewBox="0 0 320 232" fill="none" xmlns="http://www.w3.org/2000/svg">
<g filter="url(#filter0_dd_10060_19297)">
<g clip-path="url(#clip0_10060_19297)">
<rect x="52" y="62" width="216" height="108" rx="12" fill="#0E0F10"/>
<mask id="path-2-inside-1_10060_19297" fill="white">
<path d="M52 62H124V98H52V62Z"/>
</mask>
<path d="M124 98V99H125V98H124ZM123 62V98H125V62H123ZM124 97H52V99H124V97Z" fill="#261958" mask="url(#path-2-inside-1_10060_19297)"/>
<rect x="68" y="75" width="40" height="10" rx="5" fill="#4329AC"/>
<mask id="path-5-inside-2_10060_19297" fill="white">
<path d="M124 62H196V98H124V62Z"/>
</mask>
<path d="M196 98V99H197V98H196ZM195 62V98H197V62H195ZM196 97H124V99H196V97Z" fill="#261958" mask="url(#path-5-inside-2_10060_19297)"/>
<rect x="140" y="75" width="40" height="10" rx="5" fill="#4329AC"/>
<mask id="path-8-inside-3_10060_19297" fill="white">
<path d="M196 62H268V98H196V62Z"/>
</mask>
<path d="M268 97H196V99H268V97Z" fill="#261958" mask="url(#path-8-inside-3_10060_19297)"/>
<rect x="212" y="75" width="40" height="10" rx="5" fill="#4329AC"/>
<mask id="path-11-inside-4_10060_19297" fill="white">
<path d="M52 98H124V134H52V98Z"/>
</mask>
<path d="M124 134V135H125V134H124ZM123 98V134H125V98H123ZM124 133H52V135H124V133Z" fill="#261958" mask="url(#path-11-inside-4_10060_19297)"/>
<rect x="81.5" y="109.5" width="13" height="13" rx="4.5" stroke="#4329AC"/>
<mask id="path-14-inside-5_10060_19297" fill="white">
<path d="M124 98H196V134H124V98Z"/>
</mask>
<path d="M196 134V135H197V134H196ZM195 98V134H197V98H195ZM196 133H124V135H196V133Z" fill="#261958" mask="url(#path-14-inside-5_10060_19297)"/>
<rect x="140" y="111" width="40" height="10" rx="5" fill="#2F1C78"/>
<mask id="path-17-inside-6_10060_19297" fill="white">
<path d="M196 98H268V134H196V98Z"/>
</mask>
<path d="M268 133H196V135H268V133Z" fill="#261958" mask="url(#path-17-inside-6_10060_19297)"/>
<rect x="212" y="111" width="40" height="10" rx="5" fill="#2F1C78"/>
<mask id="path-20-inside-7_10060_19297" fill="white">
<path d="M52 134H124V170H52V134Z"/>
</mask>
<path d="M123 134V170H125V134H123Z" fill="#261958" mask="url(#path-20-inside-7_10060_19297)"/>
<rect x="81.5" y="145.5" width="13" height="13" rx="4.5" stroke="#4329AC"/>
<mask id="path-23-inside-8_10060_19297" fill="white">
<path d="M124 134H196V170H124V134Z"/>
</mask>
<path d="M195 134V170H197V134H195Z" fill="#261958" mask="url(#path-23-inside-8_10060_19297)"/>
<rect x="140" y="147" width="40" height="10" rx="5" fill="#2F1C78"/>
<rect x="212" y="147" width="40" height="10" rx="5" fill="#2F1C78"/>
</g>
</g>
<defs>
<filter id="filter0_dd_10060_19297" x="32" y="54" width="256" height="148" filterUnits="userSpaceOnUse" color-interpolation-filters="sRGB">
<feFlood flood-opacity="0" result="BackgroundImageFix"/>
<feColorMatrix in="SourceAlpha" type="matrix" values="0 0 0 0 0 0 0 0 0 0 0 0 0 0 0 0 0 0 127 0" result="hardAlpha"/>
<feOffset dy="12"/>
<feGaussianBlur stdDeviation="10"/>
<feComposite in2="hardAlpha" operator="out"/>
<feColorMatrix type="matrix" values="0 0 0 0 0 0 0 0 0 0 0 0 0 0 0 0 0 0 0.03 0"/>
<feBlend mode="normal" in2="BackgroundImageFix" result="effect1_dropShadow_10060_19297"/>
<feColorMatrix in="SourceAlpha" type="matrix" values="0 0 0 0 0 0 0 0 0 0 0 0 0 0 0 0 0 0 127 0" result="hardAlpha"/>
<feOffset dy="2"/>
<feGaussianBlur stdDeviation="3"/>
<feComposite in2="hardAlpha" operator="out"/>
<feColorMatrix type="matrix" values="0 0 0 0 0 0 0 0 0 0 0 0 0 0 0 0 0 0 0.05 0"/>
<feBlend mode="normal" in2="effect1_dropShadow_10060_19297" result="effect2_dropShadow_10060_19297"/>
<feBlend mode="normal" in="SourceGraphic" in2="effect2_dropShadow_10060_19297" result="shape"/>
</filter>
<clipPath id="clip0_10060_19297">
<rect x="52" y="62" width="216" height="108" rx="12" fill="white"/>
</clipPath>
</defs>
</svg>
